X:0
T:Restless Intellect
M:C|
C:© Paul Gitlitz 2009
R:reel
K:D
A2|:"D"dAFA cAFA|("Bm"{Bc}BA)Bc BAFA|"A7"eAGA dAGA|"G"(3cBA cd "Em"efge|
"D"dAFA cAFA|("Bm"{Bc}BA)Bc BAFA|"A"cABA "F#m"cABA|"A7"cefe "D"d2A2:|!
|:"D"d2dA BAfe|d2dA BAFA|"A"cABA "F#m"cABA|"A7"aA_aA "Em"gece|!
"D"d2dA BAfe|d2dA BAFA|"A"cABA "F#m"cABA|"A7"cefe "D"d4:|]
